lib/preview/nrk-logo-preview-nrk-p13-with-bg.svg

<svg width="74" height="24" viewBox="0 0 74 24" fill="none" xmlns="http://www.w3.org/2000/svg">
<rect width="74" height="24" fill="#FFA90A"/>
<path d="M6.00427 18V6.00109H9.94146V18H6.00427ZM15.2981 7.91078L17.5623 18H13.2534L10.5498 6.00109H12.9664C13.5206 5.9939 14.0583 6.18925 14.4788 6.55039C14.8999 6.89638 15.1892 7.3767 15.2981 7.91078ZM18.1538 18V6.00109H22.091V18H18.1538ZM25.0647 10.5641C24.6405 10.5682 24.223 10.4572 23.8568 10.243C23.4955 10.0341 23.1954 9.73396 22.9865 9.3726C22.7721 9.00633 22.661 8.58876 22.6652 8.16432C22.6604 7.74246 22.7715 7.32738 22.9865 6.96443C23.1976 6.60699 23.4974 6.31009 23.8568 6.10252C24.2231 5.8885 24.6405 5.77751 25.0647 5.78138C25.4865 5.77684 25.9014 5.88793 26.2645 6.10252C26.6203 6.31191 26.9169 6.60856 27.1263 6.96443C27.3411 7.32748 27.4522 7.74249 27.4476 8.16432C27.4515 8.58873 27.3405 9.00623 27.1263 9.3726C26.9191 9.73238 26.6222 10.0323 26.2645 10.243C25.9014 10.458 25.4862 10.5691 25.0642 10.5641H25.0647ZM28.0559 18V6.00109H31.9934V18H28.0559ZM36.978 12.5582C36.9891 12.5699 37.0735 12.7079 37.2314 12.9723C37.3893 13.2367 37.5949 13.5747 37.8482 13.9863C38.1017 14.3977 38.3692 14.8343 38.6506 15.296C38.932 15.7577 39.1969 16.1944 39.4451 16.6058C39.6924 17.0172 39.974 17.4819 40.29 18H35.9641C35.6936 17.5606 35.4484 17.1635 35.2288 16.8086C35.0091 16.4537 34.7756 16.0706 34.5281 15.6594C34.2801 15.2485 34.0349 14.8485 33.7925 14.4595C33.5501 14.0704 33.3418 13.7296 33.1675 13.4371C32.9926 13.1443 32.8714 12.9471 32.8039 12.8455C32.6368 12.5934 32.5379 12.3023 32.517 12.0005C32.5337 11.7109 32.6269 11.431 32.787 11.1891C32.8546 11.0764 32.9786 10.8764 33.1588 10.5891C33.3391 10.3018 33.5503 9.96105 33.7925 9.56672C34.0347 9.17239 34.2799 8.7696 34.5281 8.35837C34.7763 7.94715 35.0098 7.56124 35.2288 7.20071C35.4488 6.84055 35.6939 6.44059 35.9641 6.00081H40.29L36.9439 11.4595C36.8404 11.6216 36.782 11.8083 36.7749 12.0005C36.786 12.2023 36.8565 12.3963 36.9774 12.5582H36.978Z" fill="#0A2343"/>
<path d="M53.0063 7.55421C52.7985 7.23381 52.5319 6.95571 52.2205 6.73464C51.8734 6.49154 51.4878 6.30872 51.0799 6.1939C50.5848 6.05723 50.0727 5.9919 49.5591 5.99986H44.8615V17.9974H46.6358V13.6885H49.6942C50.3846 13.6991 51.0659 13.5302 51.6713 13.1981C52.2516 12.8769 52.7334 12.4039 53.0654 11.8297C53.4213 11.1959 53.5994 10.4778 53.5808 9.75123C53.5823 9.35858 53.5369 8.96715 53.4456 8.58527C53.3579 8.21942 53.2094 7.87088 53.0063 7.55421ZM51.4348 11.196C51.2076 11.5522 50.8733 11.8273 50.48 11.9817C50.0027 12.1624 49.4947 12.2485 48.9845 12.2352H46.6358V7.47029H49.2211C49.715 7.45157 50.2065 7.54698 50.6575 7.7491C51.0163 7.92246 51.3096 8.2069 51.4939 8.56021C51.6892 8.95648 51.7849 9.39437 51.7727 9.83598C51.7921 10.3123 51.6749 10.7842 51.4348 11.196Z" fill="#0A2343"/>
<path d="M57.1883 6.39696C56.9461 6.52651 56.7096 6.64762 56.4788 6.76027C56.2481 6.87293 56.0142 6.98557 55.7773 7.09822C55.5409 7.21087 55.2987 7.31225 55.0507 7.40237C54.8026 7.49249 54.538 7.58264 54.2568 7.67276L54.6282 9.10908C54.9662 9.0077 55.2732 8.90629 55.5492 8.8049C55.8195 8.7058 56.0846 8.59301 56.3434 8.46695C56.597 8.34303 56.8505 8.20787 57.1038 8.06142L57.1125 8.05633V17.998H58.8696V6.00039H57.9574C57.6869 6.13483 57.4305 6.26703 57.1883 6.39696Z" fill="#0A2343"/>
<path d="M68.079 13.5023C67.9618 13.1649 67.7779 12.8546 67.5383 12.5898C67.2892 12.3221 66.987 12.1092 66.6511 11.9649C66.2663 11.7991 65.8592 11.6909 65.4429 11.6438V11.5928C65.9483 11.4322 66.4185 11.177 66.8285 10.8408C67.1944 10.5408 67.4961 10.1703 67.7157 9.75123C67.9232 9.34903 68.0304 8.90266 68.0283 8.45009C68.0359 8.06586 67.9488 7.68565 67.7748 7.34298C67.5965 7.01172 67.3416 6.72789 67.0313 6.51524C66.6704 6.26957 66.2662 6.09469 65.84 5.99986C65.3162 5.88107 64.7802 5.82436 64.2432 5.83089C63.8898 5.83206 63.5369 5.85756 63.187 5.90721C62.8249 5.95686 62.4665 6.03025 62.114 6.12689C61.7748 6.21868 61.4463 6.34611 61.1339 6.50709L61.3705 7.84203C61.6181 7.74064 61.8575 7.65323 62.0886 7.57982C62.3198 7.50641 62.5423 7.44726 62.7561 7.40239C62.97 7.3577 63.1784 7.324 63.3814 7.30128C63.5777 7.27911 63.7751 7.26783 63.9727 7.26749C64.3303 7.26166 64.6873 7.29557 65.0373 7.36859C65.291 7.41972 65.5322 7.5203 65.747 7.6646C65.9221 7.788 66.0596 7.95754 66.1442 8.15436C66.2334 8.37714 66.2765 8.6157 66.2709 8.85562C66.2757 9.18532 66.1973 9.51088 66.0428 9.80218C65.8856 10.0893 65.6662 10.3376 65.4006 10.5288C65.1012 10.7428 64.7666 10.9029 64.4121 11.0019C63.9999 11.1185 63.5731 11.1754 63.1448 11.1709H62.8237L62.621 12.4892H63.1617C63.6603 12.4824 64.1584 12.5248 64.6487 12.616C65.0158 12.6817 65.3678 12.8133 65.6879 13.0047C65.9496 13.1641 66.1629 13.392 66.3047 13.6637C66.4459 13.9557 66.5155 14.2772 66.5074 14.6015C66.5161 14.9295 66.4526 15.2554 66.3216 15.5562C66.1959 15.8229 66.0003 16.0506 65.7555 16.215C65.4628 16.4059 65.1356 16.5379 64.7923 16.6036C64.3391 16.6944 63.8774 16.7369 63.4151 16.7304C63.2461 16.7304 63.0797 16.725 62.9166 16.7137C62.7536 16.7025 62.5812 16.6856 62.4013 16.6628C62.2213 16.6399 62.0321 16.6098 61.8352 16.5701C61.6383 16.5304 61.4212 16.4831 61.1846 16.4262L60.9649 17.8625C61.2126 17.9076 61.452 17.9498 61.6831 17.9893C61.9142 18.0287 62.1423 18.0625 62.3675 18.0907C62.5928 18.1184 62.8125 18.1381 63.0265 18.1495C63.2405 18.161 63.4489 18.1667 63.6517 18.1667C64.1902 18.1709 64.7278 18.1227 65.257 18.0228C65.7067 17.9391 66.1421 17.7912 66.5497 17.5837C66.9056 17.4029 67.2261 17.1596 67.496 16.8656C67.7499 16.5829 67.9452 16.2526 68.0705 15.8939C68.2045 15.4996 68.2702 15.0853 68.2648 14.6688C68.27 14.2722 68.2071 13.8777 68.079 13.5023Z" fill="#0A2343"/>
</svg>

<svg xmlns="http://www.w3.org/2000/svg" viewBox="0 0 74 24"><path fill="#FFA90A" d="M0 0h74v24H0z"/><path fill="#0A2343" d="M6.004 18V6.001h3.937V18H6.004Zm9.294-10.09L17.562 18h-4.309L10.55 6.001h2.416a2.276 2.276 0 0 1 1.513.55c.42.345.71.826.82 1.36ZM18.154 18V6.001h3.937V18h-3.937Zm6.91-7.436a2.383 2.383 0 0 1-2.4-2.4 2.303 2.303 0 0 1 .323-1.2 2.411 2.411 0 0 1 3.278-.861c.355.209.652.506.861.861.215.363.326.778.322 1.2a2.4 2.4 0 0 1-1.183 2.079 2.302 2.302 0 0 1-1.2.321ZM28.057 18V6.001h3.937V18h-3.937Zm8.922-5.442c.011.012.096.15.253.414.158.265.364.603.617 1.014a315.936 315.936 0 0 1 1.597 2.62c.247.411.529.876.845 1.394h-4.326c-.27-.44-.516-.837-.735-1.191-.22-.355-.453-.738-.7-1.15-.249-.41-.494-.81-.737-1.2-.242-.389-.45-.73-.625-1.022-.174-.293-.296-.49-.363-.591a1.748 1.748 0 0 1-.287-.845c.017-.29.11-.57.27-.812.068-.113.192-.313.372-.6s.391-.628.633-1.022c.243-.395.488-.797.736-1.209l.7-1.157.736-1.2h4.326l-3.346 5.458a1.08 1.08 0 0 0-.17.542c.012.201.082.395.203.557h.001ZM53.006 7.554a3.021 3.021 0 0 0-.785-.82 3.768 3.768 0 0 0-1.141-.54A5.4 5.4 0 0 0 49.56 6H44.86v11.997h1.775v-4.309h3.058c.69.011 1.372-.158 1.977-.49a3.655 3.655 0 0 0 1.394-1.368 4.034 4.034 0 0 0 .516-2.079 4.933 4.933 0 0 0-.135-1.166 3.361 3.361 0 0 0-.44-1.03Zm-1.571 3.642a1.999 1.999 0 0 1-.955.786c-.477.18-.985.267-1.495.253h-2.35V7.47h2.586c.494-.018.986.077 1.437.28.358.172.652.457.836.81.195.396.29.834.279 1.276.02.476-.098.948-.338 1.36ZM57.188 6.397c-.242.13-.478.25-.71.363-.23.113-.464.226-.7.338a8.192 8.192 0 0 1-.727.304c-.248.09-.513.18-.794.27l.371 1.437c.338-.101.645-.203.921-.304.27-.1.536-.212.794-.338.254-.124.507-.26.76-.406l.01-.005v9.942h1.757V6h-.913c-.27.135-.526.267-.769.397ZM68.079 13.502a2.662 2.662 0 0 0-.54-.912 2.63 2.63 0 0 0-.888-.625 4.265 4.265 0 0 0-1.208-.321v-.051c.505-.16.975-.416 1.386-.752.365-.3.667-.67.887-1.09a2.81 2.81 0 0 0 .312-1.3 2.343 2.343 0 0 0-.253-1.108 2.359 2.359 0 0 0-.744-.828A3.448 3.448 0 0 0 65.84 6a6.844 6.844 0 0 0-1.597-.17 8.346 8.346 0 0 0-2.13.296c-.338.093-.667.22-.98.381l.237 1.335c.248-.101.488-.189.719-.262A6.88 6.88 0 0 1 63.38 7.3a5.35 5.35 0 0 1 .592-.034c.357-.005.714.029 1.064.102.254.05.495.151.71.296.175.123.313.293.397.49.09.222.132.46.127.7a1.96 1.96 0 0 1-.228.947 2.193 2.193 0 0 1-.642.727c-.3.214-.634.374-.989.473a4.483 4.483 0 0 1-1.267.169h-.321l-.203 1.318h.54c.5-.007.997.036 1.488.127.367.066.719.197 1.039.389.262.16.475.387.617.659.14.292.21.613.202.938.01.328-.054.653-.185.954a1.631 1.631 0 0 1-.567.659c-.292.19-.62.323-.963.389-.453.09-.915.133-1.377.126-.169 0-.335-.005-.498-.016a9.04 9.04 0 0 1-1.082-.144c-.197-.04-.414-.087-.65-.144l-.22 1.437c.248.045.487.087.718.126.231.04.46.073.684.102.226.027.446.047.66.058.213.012.422.018.625.018a8.305 8.305 0 0 0 1.605-.144c.45-.084.885-.232 1.293-.44.356-.18.676-.423.946-.717.254-.283.45-.613.575-.972.133-.394.2-.809.194-1.225a3.471 3.471 0 0 0-.186-1.167Z"/></svg>
